communes/861.svg

<?xml version="1.0" encoding="UTF-8"?>
<svg sodipodi:docbase="F:\MIS DOCUMENTOS\Mis imágenes\Encyclopédie\Escudos de Suiza" sodipodi:docname="Belp-coat of arms.svg" sodipodi:version="0.32" version="1.0" viewBox="0 0 603 763" xmlns="http://www.w3.org/2000/svg" xmlns:cc="http://web.resource.org/cc/" xmlns:dc="http://purl.org/dc/elements/1.1/" xmlns:rdf="http://www.w3.org/1999/02/22-rdf-syntax-ns#" xmlns:sodipodi="http://inkscape.sourceforge.net/DTD/sodipodi-0.dtd" xmlns:xlink="http://www.w3.org/1999/xlink">
<metadata>
<rdf:RDF>
<cc:Work rdf:about="">
<dc:format>image/svg+xml</dc:format>
<dc:type rdf:resource="http://purl.org/dc/dcmitype/StillImage"/>
<dc:date>07-AUG-2006</dc:date>
<dc:creator>
<cc:Agent>
<dc:title>Jérôme BLUM (wagner51)</dc:title>
</cc:Agent>
</dc:creator>
<cc:license rdf:resource="http://creativecommons.org/licenses/GPL/2.0/"/>
<dc:coverage/>
<dc:description>Gabarit pour le Projet:Blasons de WIkipédia</dc:description>
<dc:subject>
<rdf:Bag>
<rdf:li>blason suisse modèle gabarit projet blasons</rdf:li>
</rdf:Bag>
</dc:subject>
<dc:language>fr</dc:language>
<dc:title>Gabrit d'un blason suisse</dc:title>
</cc:Work>
<cc:License rdf:about="http://creativecommons.org/licenses/GPL/2.0/">
<cc:permits rdf:resource="http://web.resource.org/cc/Reproduction"/>
<cc:permits rdf:resource="http://web.resource.org/cc/Distribution"/>
<cc:requires rdf:resource="http://web.resource.org/cc/Notice"/>
<cc:permits rdf:resource="http://web.resource.org/cc/DerivativeWorks"/>
<cc:requires rdf:resource="http://web.resource.org/cc/ShareAlike"/>
<cc:requires rdf:resource="http://web.resource.org/cc/SourceCode"/>
</cc:License>
</rdf:RDF>
</metadata>
<defs>
<radialGradient id="a" cx="858.04" cy="579.93" r="300" gradientTransform="matrix(1.215 1.5316e-24 1.4647e-23 1.2667 -839.19 -490.49)" gradientUnits="userSpaceOnUse">
<stop stop-color="#fff" stop-opacity=".31373" offset="0"/>
<stop stop-color="#fff" stop-opacity=".25098" offset=".19"/>
<stop stop-color="#6b6b6b" stop-opacity=".12549" offset=".6"/>
<stop stop-opacity=".12549" offset="1"/>
</radialGradient>
</defs>
<sodipodi:namedview bordercolor="#666666" borderopacity="1.0" gridtolerance="10.0" guidetolerance="10.0" objecttolerance="10.0" pagecolor="#ffffff" showgrid="false"/>
<desc>Coat of Arms of Canton of Freiburg (Fribourg)</desc>
<g>
<path d="m0 3v458.87c0 166.31 134.31 301.13 300 301.13 165.69 0 300-134.82 300-301.13v-458.87h-600z" fill="#fe0000"/>
<path d="m301.53 2.366v379.92h296.94v-379.92h-296.94zm296.94 379.92v120.28c0.4332-3.0545 0.81456-6.1304 1.1562-9.2137v-111.07h-1.1562zm-296.94 0h-300.03v77.22c0 166.78 134.31 301.98 300 301.98 1.2056 0 2.4228-0.01706 3.625-0.03133h-3.5938v-379.17zm296.34 124.23c-0.13641 0.87795-0.26234 1.7571-0.40625 2.6325 0.14282-0.86944 0.27082-1.7605 0.40625-2.6325zm-0.4375 2.8205c-0.15988 0.96947-0.33097 1.9169-0.5 2.8832 0.16717-0.95564 0.34178-1.9245 0.5-2.8832zm-2.2188 11.878c-0.21853 1.0592-0.42672 2.1415-0.65625 3.1966 0.23151-1.0638 0.43592-2.1287 0.65625-3.1966zm-1.4062 6.5186c-0.12543 0.54667-0.24663 1.0841-0.375 1.6296 0.12932-0.54948 0.24867-1.079 0.375-1.6296zm-3.0625 12.128c-0.15263 0.55797-0.31302 1.1043-0.46875 1.661 0.15558-0.55609 0.31626-1.1036 0.46875-1.661zm-3.9688 13.256c-0.17712 0.5473-0.35111 1.1151-0.53125 1.661 0.18157-0.55006 0.35274-1.1095 0.53125-1.661zm-17.938 43.561c-0.24808 0.48896-0.49936 0.98553-0.75 1.473 0.25177-0.48954 0.50082-0.98186 0.75-1.473zm-8.5312 15.607c-0.28478 0.4879-0.55633 0.95547-0.84375 1.4416 0.2834-0.47931 0.56291-0.96059 0.84375-1.4416zm-14.656 22.721c-0.49857 0.70154-0.99563 1.4027-1.5 2.0997 0.50552-0.69875 1.0003-1.3965 1.5-2.0997zm-23.719 29.333c-0.44271 0.4825-0.89796 0.96203-1.3438 1.4416 0.44691-0.48081 0.89993-0.95786 1.3438-1.4416zm-16.875 16.986c-0.39849 0.37073-0.78701 0.72829-1.1875 1.0969 0.39612-0.36462 0.79334-0.73013 1.1875-1.0969zm-29.031 23.818c-0.84874 0.61217-1.7072 1.2142-2.5625 1.8177 0.85119-0.60059 1.7178-1.2084 2.5625-1.8177zm-33.5 20.966c-0.78051 0.41925-1.5591 0.84107-2.3438 1.2536 0.78704-0.41378 1.5608-0.83299 2.3438-1.2536zm-10.062 5.1396c-0.95717 0.46829-1.9122 0.95197-2.875 1.4103 0.96316-0.45849 1.9175-0.94177 2.875-1.4103zm-16.906 7.6468c-0.90323 0.37409-1.8111 0.73143-2.7188 1.0969 0.90831-0.36576 1.8148-0.72247 2.7188-1.0969zm-4.7188 1.9117c-0.87286 0.34409-1.7482 0.6668-2.625 1.0028 0.87477-0.33525 1.7542-0.6596 2.625-1.0028zm-12 4.4188c-0.52442 0.18102-1.0368 0.3546-1.5625 0.53277 0.52102-0.17658 1.0428-0.35338 1.5625-0.53277zm-3.1562 1.0655c-0.52702 0.17532-1.0342 0.36032-1.5625 0.53277 0.52101-0.17009 1.0428-0.3599 1.5625-0.53277zm-4.75 1.5356c-0.91717 0.28799-1.8291 0.59816-2.75 0.87749 0.92003-0.27908 1.8337-0.58978 2.75-0.87749zm-9.625 2.8519c-1.0257 0.28428-2.0636 0.5726-3.0938 0.84615 1.03-0.27353 2.0681-0.56189 3.0938-0.84615zm-13.156 3.3219c-0.84476 0.19295-1.6838 0.40971-2.5312 0.59546 0.84483-0.18518 1.6891-0.40313 2.5312-0.59546zm-3.1562 0.72081c-0.55309 0.11999-1.102 0.22782-1.6562 0.34473 0.55108-0.11625 1.1063-0.22544 1.6562-0.34473zm-10.5 2.0684c-0.82271 0.14763-1.6437 0.29786-2.4688 0.43873 0.82606-0.14101 1.645-0.29093 2.4688-0.43873zm-6.1875 1.0342c-0.56072 0.08846-1.1258 0.16537-1.6875 0.25071 0.56188-0.08534 1.1266-0.16225 1.6875-0.25071zm-3.3438 0.50142c-0.56276 0.0822-1.155 0.17166-1.7188 0.25071 0.5756-0.08067 1.1442-0.16675 1.7188-0.25071zm-6.0938 0.84615c-0.79656 0.09964-1.6078 0.18872-2.4062 0.28206 0.80353-0.09392 1.6047-0.18176 2.4062-0.28206zm-14.656 1.4729c-0.49052 0.037-0.97757 0.0594-1.4688 0.09402 0.48921-0.03448 0.98019-0.05718 1.4688-0.09402zm-8.375 0.50142c-1.1367 0.05386-2.2975 0.11563-3.4375 0.15671 1.1533-0.04146 2.2876-0.10217 3.4375-0.15671zm-3.5625 0.15671c-1.0879 0.03875-2.1592 0.06695-3.25 0.09402 1.0831-0.02687 2.1698-0.05565 3.25-0.09402z" fill="#fff" fill-rule="evenodd" stroke="#000" stroke-width="3.0043"/>
</g>
<g sodipodi:insensitive="true">
<path d="m1.5 1.5v458.87c0 166.31 134.31 301.13 300 301.13 165.69 0 300-134.82 300-301.13v-458.87h-600z" fill="url(#a)"/>
<path d="m1.5 1.5v458.87c0 166.31 134.31 301.13 300 301.13 165.69 0 300-134.82 300-301.13v-458.87h-600z" fill="none" stroke="#000" stroke-width="3"/>
</g>
</svg>

<?xml version="1.0" encoding="UTF-8" standalone="no"?>
<svg
   xmlns:dc="http://purl.org/dc/elements/1.1/"
   xmlns:cc="http://web.resource.org/cc/"
   xmlns:rdf="http://www.w3.org/1999/02/22-rdf-syntax-ns#"
   xmlns:svg="http://www.w3.org/2000/svg"
   xmlns="http://www.w3.org/2000/svg"
   xmlns:xlink="http://www.w3.org/1999/xlink"
   xmlns:sodipodi="http://inkscape.sourceforge.net/DTD/sodipodi-0.dtd"
   xmlns:inkscape="http://www.inkscape.org/namespaces/inkscape"
   height="763"
   width="603"
   version="1.0"
   id="svg20"
   sodipodi:version="0.32"
   inkscape:version="0.43"
   sodipodi:docname="Belp-coat of arms.svg"
   sodipodi:docbase="F:\MIS DOCUMENTOS\Mis imágenes\Encyclopédie\Escudos de Suiza">
  <metadata
     id="metadata31">
    <rdf:RDF>
      <cc:Work
         rdf:about="">
        <dc:format>image/svg+xml</dc:format>
        <dc:type
           rdf:resource="http://purl.org/dc/dcmitype/StillImage" />
        <dc:date>07-AUG-2006</dc:date>
        <dc:creator>
          <cc:Agent>
            <dc:title>Jérôme BLUM (wagner51)</dc:title>
          </cc:Agent>
        </dc:creator>
        <cc:license
           rdf:resource="http://creativecommons.org/licenses/GPL/2.0/" />
        <dc:coverage />
        <dc:description>Gabarit pour le Projet:Blasons de WIkipédia</dc:description>
        <dc:subject>
          <rdf:Bag>
            <rdf:li>blason suisse modèle gabarit projet blasons</rdf:li>
          </rdf:Bag>
        </dc:subject>
        <dc:language>fr</dc:language>
        <dc:title>Gabrit d'un blason suisse</dc:title>
      </cc:Work>
      <cc:License
         rdf:about="http://creativecommons.org/licenses/GPL/2.0/">
        <cc:permits
           rdf:resource="http://web.resource.org/cc/Reproduction" />
        <cc:permits
           rdf:resource="http://web.resource.org/cc/Distribution" />
        <cc:requires
           rdf:resource="http://web.resource.org/cc/Notice" />
        <cc:permits
           rdf:resource="http://web.resource.org/cc/DerivativeWorks" />
        <cc:requires
           rdf:resource="http://web.resource.org/cc/ShareAlike" />
        <cc:requires
           rdf:resource="http://web.resource.org/cc/SourceCode" />
      </cc:License>
    </rdf:RDF>
  </metadata>
  <defs
     id="defs29">
    <linearGradient
       id="linearGradient2893">
      <stop
         style="stop-color:#ffffff;stop-opacity:0.3137255;"
         offset="0"
         id="stop2895" />
      <stop
         id="stop2897"
         offset="0.19"
         style="stop-color:#ffffff;stop-opacity:0.25098041;" />
      <stop
         style="stop-color:#6b6b6b;stop-opacity:0.1254902;"
         offset="0.60000002"
         id="stop2901" />
      <stop
         style="stop-color:#000000;stop-opacity:0.1254902;"
         offset="1"
         id="stop2899" />
    </linearGradient>
    <linearGradient
       id="linearGradient2955">
      <stop
         style="stop-color:white;stop-opacity:0;"
         offset="0"
         id="stop2965" />
      <stop
         style="stop-color:black;stop-opacity:0.64583331;"
         offset="1"
         id="stop2959" />
    </linearGradient>
    <radialGradient
       inkscape:collect="always"
       xlink:href="#linearGradient2893"
       id="radialGradient3236"
       gradientUnits="userSpaceOnUse"
       gradientTransform="matrix(1.215027,1.531577e-24,1.464684e-23,1.266667,-839.1924,-490.4894)"
       cx="858.04236"
       cy="579.93323"
       fx="858.04236"
       fy="579.93323"
       r="300" />
  </defs>
  <sodipodi:namedview
     inkscape:window-height="682"
     inkscape:window-width="1024"
     inkscape:pageshadow="2"
     inkscape:pageopacity="0.0"
     guidetolerance="10.0"
     gridtolerance="10.0"
     objecttolerance="10.0"
     borderopacity="1.0"
     bordercolor="#666666"
     pagecolor="#ffffff"
     id="base"
     inkscape:zoom="0.48301887"
     inkscape:cx="335.06248"
     inkscape:cy="338.56548"
     inkscape:window-x="-4"
     inkscape:window-y="-4"
     inkscape:current-layer="layer1"
     showgrid="false" />
  <desc
     id="desc22">Coat of Arms of Canton of Freiburg (Fribourg)</desc>
  <g
     inkscape:groupmode="layer"
     id="layer1"
     inkscape:label="Fond écu"
     style="display:inline">
    <path
       style="fill:#fe0000;fill-opacity:1"
       d="M 0,2.99998 L 0,461.8679 C 0,628.1785 134.31456,763 299.99999,763 C 465.68547,763 599.99997,628.1785 599.99997,461.8679 L 599.99997,2.99998 L 0,2.99998 z "
       id="path1899" />
    <path
       style="fill:#ffffff;fill-opacity:1;fill-rule:evenodd;stroke:#000000;stroke-width:3.00427508;stroke-linecap:butt;stroke-linejoin:miter;stroke-miterlimit:4;stroke-dasharray:none;stroke-opacity:1"
       d="M 301.53125,2.3660491 L 301.53125,382.29031 L 598.46875,382.29031 L 598.46875,2.3660491 L 301.53125,2.3660491 z M 598.46875,382.29031 L 598.46875,502.56988 C 598.90195,499.51537 599.28331,496.43946 599.625,493.35618 L 599.625,382.29031 L 598.46875,382.29031 z M 301.53125,382.29031 L 1.5,382.29031 L 1.5,459.50992 C 1.5,626.29488 135.81461,761.49377 301.5,761.49377 C 302.70559,761.49377 303.92277,761.47671 305.125,761.46244 L 301.53125,761.46244 L 301.53125,382.29031 z M 597.875,506.51862 C 597.73859,507.39657 597.61266,508.27568 597.46875,509.1511 C 597.61157,508.28166 597.73957,507.39056 597.875,506.51862 z M 597.4375,509.33914 C 597.27762,510.30861 597.10653,511.25602 596.9375,512.22234 C 597.10467,511.2667 597.27928,510.29785 597.4375,509.33914 z M 595.21875,521.21667 C 595.00022,522.27591 594.79203,523.35813 594.5625,524.41326 C 594.79401,523.34949 594.99842,522.2846 595.21875,521.21667 z M 593.8125,527.73522 C 593.68707,528.28189 593.56587,528.81931 593.4375,529.36484 C 593.56682,528.81536 593.68617,528.28585 593.8125,527.73522 z M 590.75,539.86345 C 590.59737,540.42142 590.43698,540.96776 590.28125,541.52442 C 590.43683,540.96833 590.59751,540.42084 590.75,539.86345 z M 586.78125,553.1199 C 586.60413,553.6672 586.43014,554.23496 586.25,554.78088 C 586.43157,554.23082 586.60274,553.67134 586.78125,553.1199 z M 568.84375,596.68129 C 568.59567,597.17025 568.34439,597.66682 568.09375,598.15424 C 568.34552,597.6647 568.59457,597.17238 568.84375,596.68129 z M 560.3125,612.28818 C 560.02772,612.77608 559.75617,613.24365 559.46875,613.72978 C 559.75215,613.25047 560.03166,612.76919 560.3125,612.28818 z M 545.65625,635.00905 C 545.15768,635.71059 544.66062,636.41172 544.15625,637.10877 C 544.66177,636.41002 545.15656,635.71231 545.65625,635.00905 z M 521.9375,664.34247 C 521.49479,664.82497 521.03954,665.3045 520.59375,665.78407 C 521.04066,665.30326 521.49368,664.82621 521.9375,664.34247 z M 505.0625,681.32828 C 504.66401,681.69901 504.27549,682.05657 503.875,682.42514 C 504.27112,682.06052 504.66834,681.69501 505.0625,681.32828 z M 476.03125,705.14601 C 475.18251,705.75818 474.32407,706.36024 473.46875,706.96369 C 474.31994,706.3631 475.18657,705.75525 476.03125,705.14601 z M 442.53125,726.1119 C 441.75074,726.53115 440.97211,726.95297 440.1875,727.36546 C 440.97454,726.95168 441.74833,726.53247 442.53125,726.1119 z M 432.46875,731.25151 C 431.51158,731.7198 430.55658,732.20348 429.59375,732.66177 C 430.55691,732.20328 431.51125,731.72 432.46875,731.25151 z M 415.5625,738.89826 C 414.65927,739.27235 413.75138,739.62969 412.84375,739.99514 C 413.75206,739.62938 414.6586,739.27267 415.5625,738.89826 z M 410.84375,740.80994 C 409.97089,741.15403 409.09557,741.47674 408.21875,741.81279 C 409.09352,741.47754 409.97292,741.15319 410.84375,740.80994 z M 398.84375,745.22876 C 398.31933,745.40978 397.80698,745.58336 397.28125,745.76153 C 397.80227,745.58495 398.32401,745.40815 398.84375,745.22876 z M 395.6875,746.29429 C 395.16048,746.46961 394.65331,746.65461 394.125,746.82706 C 394.64601,746.65697 395.16775,746.46716 395.6875,746.29429 z M 390.9375,747.82991 C 390.02033,748.1179 389.10842,748.42807 388.1875,748.7074 C 389.10753,748.42832 390.02122,748.11762 390.9375,747.82991 z M 381.3125,750.68177 C 380.28676,750.96605 379.24886,751.25437 378.21875,751.52792 C 379.24875,751.25439 380.28687,750.96603 381.3125,750.68177 z M 368.15625,754.00371 C 367.31149,754.19666 366.47245,754.41342 365.625,754.59917 C 366.46983,754.41399 367.31409,754.19604 368.15625,754.00371 z M 365,754.72452 C 364.44691,754.84451 363.89797,754.95234 363.34375,755.06925 C 363.89483,754.953 364.45004,754.84381 365,754.72452 z M 354.5,756.79291 C 353.67729,756.94054 352.85627,757.09077 352.03125,757.23164 C 352.85731,757.09063 353.67625,756.94071 354.5,756.79291 z M 348.3125,757.8271 C 347.75178,757.91556 347.18675,757.99247 346.625,758.07781 C 347.18688,757.99247 347.75164,757.91556 348.3125,757.8271 z M 344.96875,758.32852 C 344.40599,758.41072 343.81377,758.50018 343.25,758.57923 C 343.8256,758.49856 344.3942,758.41248 344.96875,758.32852 z M 338.875,759.17467 C 338.07844,759.27431 337.26724,759.36339 336.46875,759.45673 C 337.27228,759.36281 338.07342,759.27497 338.875,759.17467 z M 324.21875,760.64761 C 323.72823,760.68461 323.24118,760.70701 322.75,760.74163 C 323.23921,760.70715 323.73019,760.68445 324.21875,760.64761 z M 315.84375,761.14903 C 314.70704,761.20289 313.54624,761.26466 312.40625,761.30574 C 313.55956,761.26428 314.6938,761.20357 315.84375,761.14903 z M 312.28125,761.30574 C 311.19333,761.34449 310.12209,761.37269 309.03125,761.39976 C 310.11432,761.37289 311.20106,761.34411 312.28125,761.30574 z "
       id="rect1379" />
  </g>
  <g
     inkscape:groupmode="layer"
     id="layer2"
     inkscape:label="Meubles" />
  <g
     inkscape:groupmode="layer"
     id="layer3"
     inkscape:label="Reflet final"
     style="display:inline"
     sodipodi:insensitive="true">
    <path
       style="fill:url(#radialGradient3236);fill-opacity:1"
       d="M 1.5,1.5 L 1.5,460.3679 C 1.5,626.67854 135.81454,761.5 301.49993,761.5 C 467.1854,761.5 601.5,626.67854 601.5,460.3679 L 601.5,1.5 L 1.5,1.5 z "
       id="path2346" />
  </g>
  <g
     inkscape:groupmode="layer"
     id="layer4"
     inkscape:label="Contour final"
     style="display:inline"
     sodipodi:insensitive="true">
    <path
       style="fill:none;fill-opacity:1;stroke:#000000;stroke-width:3;stroke-miterlimit:4;stroke-dasharray:none;stroke-opacity:1"
       d="M 1.5,1.5 L 1.5,460.36794 C 1.5,626.67854 135.81454,761.5 301.49993,761.5 C 467.1854,761.5 601.5,626.67854 601.5,460.36794 L 601.5,1.5 L 1.5,1.5 z "
       id="path3239" />
  </g>
</svg>
